Numix/16x16/categories/applications-geography.svg

<?xml version="1.0" encoding="UTF-8" standalone="no"?>
<svg
   xmlns:dc="http://purl.org/dc/elements/1.1/"
   xmlns:cc="http://creativecommons.org/ns#"
   xmlns:rdf="http://www.w3.org/1999/02/22-rdf-syntax-ns#"
   xmlns:svg="http://www.w3.org/2000/svg"
   xmlns="http://www.w3.org/2000/svg"
   xmlns:sodipodi="http://sodipodi.sourceforge.net/DTD/sodipodi-0.dtd"
   xmlns:inkscape="http://www.inkscape.org/namespaces/inkscape"
   width="16"
   height="16"
   viewBox="0 0 16 16"
   id="svg2"
   version="1.1"
   inkscape:version="0.91 r"
   sodipodi:docname="applications-geography.svg">
  <metadata
     id="metadata22">
    <rdf:RDF>
      <cc:Work
         rdf:about="">
        <dc:format>image/svg+xml</dc:format>
        <dc:type
           rdf:resource="http://purl.org/dc/dcmitype/StillImage" />
      </cc:Work>
    </rdf:RDF>
  </metadata>
  <sodipodi:namedview
     pagecolor="#ffffff"
     bordercolor="#666666"
     borderopacity="1"
     objecttolerance="10"
     gridtolerance="10"
     guidetolerance="10"
     inkscape:pageopacity="0"
     inkscape:pageshadow="2"
     inkscape:window-width="1920"
     inkscape:window-height="1056"
     id="namedview20"
     showgrid="false"
     inkscape:zoom="14.75"
     inkscape:cx="8"
     inkscape:cy="8"
     inkscape:window-x="0"
     inkscape:window-y="24"
     inkscape:window-maximized="1"
     inkscape:current-layer="svg2" />
  <defs
     id="defs4">
    <clipPath
       id="clip1">
      <path
         d="M 2.082031 2.082031 L 13.75 2.082031 L 13.75 13.75 L 2.082031 13.75 Z "
         id="path7" />
    </clipPath>
    <clipPath
       id="clip2">
      <path
         d="M 7.917969 13.503906 C 11.019531 13.503906 13.539062 10.976562 13.539062 7.875 C 13.539062 4.792969 11.019531 2.261719 7.917969 2.261719 C 4.832031 2.261719 2.292969 4.792969 2.292969 7.875 C 2.292969 10.976562 4.832031 13.503906 7.917969 13.503906 Z "
         id="path10" />
    </clipPath>
  </defs>
  <path
     style="fill:#78b2a3"
     d="M 7.9981051,2 C 6.4066945,2 4.9062198,2.6253946 3.7694983,3.7586861 2.628986,4.8957676 2,6.3967153 2,7.9886294 2,11.301326 4.6902428,14 7.9981051,14 11.309757,14 14,11.301326 14,7.9886294 14,4.6873025 11.309757,2 7.9981051,2 Z m 0,0.2463674 c 3.1714569,0 5.7556049,2.5773848 5.7556049,5.742262 0,3.1800386 -2.584148,5.7650036 -5.7556049,5.7650036 -3.1676658,0 -5.7480266,-2.584965 -5.7480266,-5.7650036 0,-1.5236887 0.5986743,-2.963993 1.6899279,-4.0518003 1.0912537,-1.0915982 2.534891,-1.6904617 4.0580987,-1.6904617 z"
     id="path12"
     inkscape:connector-curvature="0" />
  <g
     style="clip-rule:nonzero"
     id="g14"
     clip-path="url(#clip1)"
     transform="matrix(0.97000322,0,0,0.97030958,0.3214395,0.31711933)">
    <g
       id="g16"
       clip-path="url(#clip2)">
      <path
         style="fill:#78b2a3"
         d="m 6.011719,2.777344 c -0.03125,0 -0.0625,0.011718 -0.09375,0.03125 0.074219,-0.023438 0.109375,-0.03125 0.09375,-0.03125 M 7.859375,3.136719 7.875,2.867188 7.589844,2.886719 l 0.039062,0.25 0.230469,0 M 4.636719,7.808594 C 4.582031,7.753906 4.621094,7.519531 4.621094,7.519531 c 0,0 -0.859375,-0.449219 -1.792969,-0.722656 C 2.714844,6.765625 2.773438,6.527344 2.886719,6.4375 L 2.847656,6.1875 C 2.828125,6.058594 3.039062,5.445312 3.25,5.390625 3.457031,5.339844 3.230469,5.753906 3.230469,5.753906 l -0.210938,0.125 c 0,0 0.25,0.289063 0.304688,0.289063 0.058593,0 0.152343,-0.144531 0.152343,-0.144531 L 3.210938,5.84375 3.457031,5.734375 3.476562,5.640625 3.515625,5.625 3.925781,5.007812 C 4.207031,4.890625 4.558594,4.746094 4.601562,4.726562 4.675781,4.6875 5.210938,4.382812 5.304688,4.3125 5.402344,4.238281 5.609375,4.257812 5.6875,4.257812 5.761719,4.257812 5.878906,4.21875 5.898438,4.023438 5.914062,3.824219 5.992188,3.789062 6.046875,3.84375 6.105469,3.894531 5.992188,3.984375 6.125,4.023438 6.257812,4.058594 6.371094,4.148438 6.46875,4.058594 6.539062,3.992188 6.445312,3.917969 6.382812,3.859375 l 1.058594,0 L 7.554688,3.535156 7.304688,3.5 6.390625,3.410156 l 0,-0.109375 L 6.316406,3.3125 C 6.417969,2.769531 7.003906,2.859375 6.5625,2.542969 6.535156,2.523438 6.148438,3.152344 6.050781,3.140625 5.871094,3.117188 5.640625,3.117188 5.59375,3.175781 5.527344,3.253906 5.738281,2.910156 5.917969,2.808594 5.703125,2.871094 5.3125,2.675781 4.613281,3.167969 4.375,3.335938 3.78125,4.015625 3.535156,4.277344 2.503906,5.496094 2.421875,6.539062 2.421875,6.585938 c 0,0.089843 0.21875,0.140624 0.234375,0.25 0.019531,0.105468 -0.359375,0.46875 -0.359375,0.648437 0,0.082031 -0.191406,0.980469 0.226563,2.109375 0.371093,1.070312 1.089843,2.011719 1.183593,2.070312 l 0.265625,-0.140624 c 0,0 -0.4375,-0.773438 -0.457031,-0.847657 C 3.496094,10.605469 4.011719,9.558594 4.257812,9.59375 4.503906,9.628906 4.449219,9.703125 4.601562,9.613281 4.753906,9.523438 4.847656,8.78125 5.019531,8.710938 5.191406,8.636719 5.378906,8.546875 5.363281,8.367188 5.34375,8.1875 4.695312,7.863281 4.636719,7.808594 M 8.773438,2.507812 8.257812,2.328125 8.351562,2.617188 8.773438,2.507812 M 6.847656,3.175781 c 0.058594,0 1.199219,-0.757812 1.085938,-0.777343 -0.113282,-0.015626 -0.132813,0 -0.4375,-0.035157 C 7.191406,2.328125 6.867188,2.796875 6.789062,2.867188 6.714844,2.941406 6.738281,3.175781 6.847656,3.175781 m 5.242188,5.4375 0.148437,-0.191406 -0.148437,-0.050781 -0.109375,0.136718 -0.128907,0.191407 0.113282,0.050781 0.125,-0.136719 m 0.648437,0.625 -0.03906,-0.277343 -0.238281,0 -0.01953,0.207031 -0.21875,-0.035157 -0.05469,-0.226562 -0.113281,-0.066406 -0.128907,0.15625 -0.128906,-0.035156 -0.03906,0.121093 0.148438,0.035157 0,1.128906 0.523438,0.125 c -0.01172,0.01953 -0.01953,0.03906 -0.02344,0.04687 -0.03906,0.121093 0.144531,0.175781 0.277344,0.121093 0.04687,-0.01562 0.347656,-0.132812 0.441406,-0.359374 0.132812,-0.316407 0.21875,-0.773438 0.242188,-0.917969 L 13.3086,9.132807 12.941412,9.273433 12.734381,9.238276 l 0.0039,0 m -0.1875,-4.625 C 11.707031,3.335938 9.683594,2.5 9.683594,2.5 L 9.160156,2.773438 9.085938,2.652344 8.902344,2.582031 l 0,0.15625 L 9.070312,2.878906 8.957031,2.929688 8.535156,2.964844 7.578125,3.484375 7.667969,3.902344 7.558594,3.9375 7.503906,4.023438 l 0.3125,0.46875 0.015625,0.15625 -0.253906,0.054687 0,0.3125 L 7.429688,5.050781 7.449219,5.292969 6.191406,6.160156 6.230469,6.648438 C 6.324219,6.769531 7.042969,7.5 7.042969,7.5 c 0,0 0.828125,0.035156 1.011719,-0.070312 0.1875,-0.105469 0.054687,0.105468 0.109374,0.15625 0.058594,0.050781 0.078126,0.417968 0.128907,0.453124 0.058593,0.035157 0,0.242188 0.078125,0.3125 0.070312,0.070313 0.070312,0.902344 0.070312,0.902344 0,0 0.445313,0.746094 0.445313,0.941406 0,0.1875 -0.019531,0.171876 0.332031,0.15625 0.347656,-0.01953 0.421875,-0.15625 0.496094,-0.210937 C 9.789062,10.089844 9.789062,9.96875 9.863281,9.863281 9.9375,9.757812 10.066406,9.359375 10.230469,9.21875 10.398438,9.082031 10.839844,8.976562 10.875,8.734375 10.914062,8.488281 11.078125,8.300781 11.078125,8.300781 l 0.796875,-0.84375 -0.01953,0.113281 -0.01953,0.433594 0.238281,-0.085937 -0.01953,-0.46875 -0.08203,-0.09375 0.0078,-0.011719 c 0,0 -0.05469,-0.105469 -0.125,-0.105469 -0.07422,0 -0.515625,0.105469 -0.59375,0.085938 -0.07031,-0.015625 -0.382813,-0.851563 -0.441407,-0.882813 -0.05469,-0.035156 -0.40625,-0.609375 -0.40625,-0.609375 0,0 0.8125,0.972657 0.941407,1.355469 0.07422,0.222656 0.355469,0.015625 0.585937,-0.21875 l 0.0625,0.148438 0.144532,-0.035157 -0.01953,-0.171875 0.167969,0 0,0.257813 -0.05469,0.140625 -0.01953,0.226562 0.148438,0.140625 0.07031,-0.125 0.242188,-0.226562 0.273437,-0.136719 0.07422,0.136719 0.03906,0.195312 -0.07422,0.207031 -0.148438,0.121094 -0.07422,0.3125 0,0.15625 L 12.609375,8.214844 12.589844,7.882812 12.351562,7.902344 12.242188,8.195312 12.40625,8.4375 12.792969,8.492188 13.105469,8.195312 13.144531,7.625 13.28125,7.4375 c 0.09375,0.234375 0.15625,0.480469 0.15625,0.707031 0,0.25 0.199219,-0.125 0.101562,-0.886719 0,-0.00391 -0.152343,-1.808593 -0.988281,-2.644531 z m -3.683593,0.75 -0.996094,-0.035156 0.421875,-0.347656 0.222656,0 0.351563,0.242187 0,0.140625 m 1.214843,-0.121093 0,0.15625 -0.421875,0 L 9.695312,5.5 9.4375,5.535156 9.417969,5.621094 9.234375,5.585938 8.902344,5.519531 8.957031,5.429688 9.011719,5.328125 l 0.1875,-0.191406 0.074219,0.136719 0.277343,-0.015626 0.144531,-0.15625 0.574219,0.105469 -0.1875,0.035157 m 0.03516,-0.226563 -0.21875,0.035156 -0.035157,-0.15625 0.273438,-0.035156 0.03906,-0.160156 0.203125,0.210937 -0.261718,0.105469 m 1.074218,5.402344 -0.132812,0.105469 0.01953,0.261718 0.164063,0 0,-0.226562 0.148437,-0.191406 0,-0.398438 -0.08984,-0.019531 -0.109375,0.46875 M 9.953125,9.898438 c 0,0 -0.128906,0.035156 0.019531,0.085937 0.144532,0.054687 0.738282,-0.851563 0.738282,-0.851563 l -0.5,0.3125 -0.257813,0.453126 M 8.949219,13.230469 8.839844,13.125 8.621094,13.08984 8.582031,13.195308 8.289062,13.160148 8.269531,13.019523 l -0.222656,0 -0.238281,0.140625 -0.425782,0 L 7.347656,13.054688 6.667969,12.984375 6.554688,13.089844 6.277344,13.019531 6.242188,12.773438 6.113281,12.753906 5.964844,13.019531 5.46875,13 c 0.089844,0.04297 0.832031,0.488281 1.972656,0.578125 1.507813,0.121094 2.226563,-0.242187 2.226563,-0.242187 L 9.613281,13.28125 Z"
         id="path18"
         inkscape:connector-curvature="0" />
    </g>
  </g>
</svg>

<svg width="16" xmlns="http://www.w3.org/2000/svg" height="16" viewBox="0 0 16 16" xmlns:xlink="http://www.w3.org/1999/xlink">
<defs>
<clipPath id="clip1">
<path d="M 2.082031 2.082031 L 13.75 2.082031 L 13.75 13.75 L 2.082031 13.75 Z "/>
</clipPath>
<clipPath id="clip2">
<path d="M 7.917969 13.503906 C 11.019531 13.503906 13.539062 10.976562 13.539062 7.875 C 13.539062 4.792969 11.019531 2.261719 7.917969 2.261719 C 4.832031 2.261719 2.292969 4.792969 2.292969 7.875 C 2.292969 10.976562 4.832031 13.503906 7.917969 13.503906 Z "/>
</clipPath>
</defs>
<path style="fill:#78b2a3" d="M 7.914062 1.734375 C 6.273438 1.734375 4.726562 2.378906 3.554688 3.546875 C 2.378906 4.71875 1.730469 6.265625 1.730469 7.90625 C 1.730469 11.320312 4.503906 14.101562 7.914062 14.101562 C 11.328125 14.101562 14.101562 11.320312 14.101562 7.90625 C 14.101562 4.503906 11.328125 1.734375 7.914062 1.734375 Z M 7.914062 1.988281 C 11.183594 1.988281 13.847656 4.644531 13.847656 7.90625 C 13.847656 11.183594 11.183594 13.847656 7.914062 13.847656 C 4.648438 13.847656 1.988281 11.183594 1.988281 7.90625 C 1.988281 6.335938 2.605469 4.851562 3.730469 3.730469 C 4.855469 2.605469 6.34375 1.988281 7.914062 1.988281 Z "/>
<g style="clip-rule:nonzero;clip-path:url(#clip1)">
<g style="clip-path:url(#clip2)">
<path style="fill:#78b2a3" d="M 6.011719 2.777344 C 5.980469 2.777344 5.949219 2.789062 5.917969 2.808594 C 5.992188 2.785156 6.027344 2.777344 6.011719 2.777344 M 7.859375 3.136719 L 7.875 2.867188 L 7.589844 2.886719 L 7.628906 3.136719 L 7.859375 3.136719 M 4.636719 7.808594 C 4.582031 7.753906 4.621094 7.519531 4.621094 7.519531 C 4.621094 7.519531 3.761719 7.070312 2.828125 6.796875 C 2.714844 6.765625 2.773438 6.527344 2.886719 6.4375 L 2.847656 6.1875 C 2.828125 6.058594 3.039062 5.445312 3.25 5.390625 C 3.457031 5.339844 3.230469 5.753906 3.230469 5.753906 L 3.019531 5.878906 C 3.019531 5.878906 3.269531 6.167969 3.324219 6.167969 C 3.382812 6.167969 3.476562 6.023438 3.476562 6.023438 L 3.210938 5.84375 L 3.457031 5.734375 L 3.476562 5.640625 L 3.515625 5.625 L 3.925781 5.007812 C 4.207031 4.890625 4.558594 4.746094 4.601562 4.726562 C 4.675781 4.6875 5.210938 4.382812 5.304688 4.3125 C 5.402344 4.238281 5.609375 4.257812 5.6875 4.257812 C 5.761719 4.257812 5.878906 4.21875 5.898438 4.023438 C 5.914062 3.824219 5.992188 3.789062 6.046875 3.84375 C 6.105469 3.894531 5.992188 3.984375 6.125 4.023438 C 6.257812 4.058594 6.371094 4.148438 6.46875 4.058594 C 6.539062 3.992188 6.445312 3.917969 6.382812 3.859375 L 7.441406 3.859375 L 7.554688 3.535156 L 7.304688 3.5 L 6.390625 3.410156 L 6.390625 3.300781 L 6.316406 3.3125 C 6.417969 2.769531 7.003906 2.859375 6.5625 2.542969 C 6.535156 2.523438 6.148438 3.152344 6.050781 3.140625 C 5.871094 3.117188 5.640625 3.117188 5.59375 3.175781 C 5.527344 3.253906 5.738281 2.910156 5.917969 2.808594 C 5.703125 2.871094 5.3125 2.675781 4.613281 3.167969 C 4.375 3.335938 3.78125 4.015625 3.535156 4.277344 C 2.503906 5.496094 2.421875 6.539062 2.421875 6.585938 C 2.421875 6.675781 2.640625 6.726562 2.65625 6.835938 C 2.675781 6.941406 2.296875 7.304688 2.296875 7.484375 C 2.296875 7.566406 2.105469 8.464844 2.523438 9.59375 C 2.894531 10.664062 3.613281 11.605469 3.707031 11.664062 L 3.972656 11.523438 C 3.972656 11.523438 3.535156 10.75 3.515625 10.675781 C 3.496094 10.605469 4.011719 9.558594 4.257812 9.59375 C 4.503906 9.628906 4.449219 9.703125 4.601562 9.613281 C 4.753906 9.523438 4.847656 8.78125 5.019531 8.710938 C 5.191406 8.636719 5.378906 8.546875 5.363281 8.367188 C 5.34375 8.1875 4.695312 7.863281 4.636719 7.808594 M 8.773438 2.507812 L 8.257812 2.328125 L 8.351562 2.617188 L 8.773438 2.507812 M 6.847656 3.175781 C 6.90625 3.175781 8.046875 2.417969 7.933594 2.398438 C 7.820312 2.382812 7.800781 2.398438 7.496094 2.363281 C 7.191406 2.328125 6.867188 2.796875 6.789062 2.867188 C 6.714844 2.941406 6.738281 3.175781 6.847656 3.175781 M 12.089844 8.613281 L 12.238281 8.421875 L 12.089844 8.371094 L 11.980469 8.507812 L 11.851562 8.699219 L 11.964844 8.75 L 12.089844 8.613281 M 12.738281 9.238281 L 12.699219 8.960938 L 12.460938 8.960938 L 12.441406 9.167969 L 12.222656 9.132812 L 12.167969 8.90625 L 12.054688 8.839844 L 11.925781 8.996094 L 11.796875 8.960938 L 11.757812 9.082031 L 11.90625 9.117188 L 11.90625 10.246094 L 12.429688 10.371094 C 12.417969 10.390625 12.410156 10.410156 12.40625 10.417969 C 12.367188 10.539062 12.550781 10.59375 12.683594 10.539062 C 12.730469 10.523438 13.03125 10.40625 13.125 10.179688 C 13.257812 9.863281 13.34375 9.40625 13.367188 9.261719 L 13.308594 9.132812 L 12.941406 9.273438 L 12.734375 9.238281 L 12.738281 9.238281 M 12.550781 4.613281 C 11.707031 3.335938 9.683594 2.5 9.683594 2.5 L 9.160156 2.773438 L 9.085938 2.652344 L 8.902344 2.582031 L 8.902344 2.738281 L 9.070312 2.878906 L 8.957031 2.929688 L 8.535156 2.964844 L 7.578125 3.484375 L 7.667969 3.902344 L 7.558594 3.9375 L 7.503906 4.023438 L 7.816406 4.492188 L 7.832031 4.648438 L 7.578125 4.703125 L 7.578125 5.015625 L 7.429688 5.050781 L 7.449219 5.292969 L 6.191406 6.160156 L 6.230469 6.648438 C 6.324219 6.769531 7.042969 7.5 7.042969 7.5 C 7.042969 7.5 7.871094 7.535156 8.054688 7.429688 C 8.242188 7.324219 8.109375 7.535156 8.164062 7.585938 C 8.222656 7.636719 8.242188 8.003906 8.292969 8.039062 C 8.351562 8.074219 8.292969 8.28125 8.371094 8.351562 C 8.441406 8.421875 8.441406 9.253906 8.441406 9.253906 C 8.441406 9.253906 8.886719 10 8.886719 10.195312 C 8.886719 10.382812 8.867188 10.367188 9.21875 10.351562 C 9.566406 10.332031 9.640625 10.195312 9.714844 10.140625 C 9.789062 10.089844 9.789062 9.96875 9.863281 9.863281 C 9.9375 9.757812 10.066406 9.359375 10.230469 9.21875 C 10.398438 9.082031 10.839844 8.976562 10.875 8.734375 C 10.914062 8.488281 11.078125 8.300781 11.078125 8.300781 L 11.875 7.457031 L 11.855469 7.570312 L 11.835938 8.003906 L 12.074219 7.917969 L 12.054688 7.449219 L 11.972656 7.355469 L 11.980469 7.34375 C 11.980469 7.34375 11.925781 7.238281 11.855469 7.238281 C 11.78125 7.238281 11.339844 7.34375 11.261719 7.324219 C 11.191406 7.308594 10.878906 6.472656 10.820312 6.441406 C 10.765625 6.40625 10.414062 5.832031 10.414062 5.832031 C 10.414062 5.832031 11.226562 6.804688 11.355469 7.1875 C 11.429688 7.410156 11.710938 7.203125 11.941406 6.96875 L 12.003906 7.117188 L 12.148438 7.082031 L 12.128906 6.910156 L 12.296875 6.910156 L 12.296875 7.167969 L 12.242188 7.308594 L 12.222656 7.535156 L 12.371094 7.675781 L 12.441406 7.550781 L 12.683594 7.324219 L 12.957031 7.1875 L 13.03125 7.324219 L 13.070312 7.519531 L 12.996094 7.726562 L 12.847656 7.847656 L 12.773438 8.160156 L 12.773438 8.316406 L 12.609375 8.214844 L 12.589844 7.882812 L 12.351562 7.902344 L 12.242188 8.195312 L 12.40625 8.4375 L 12.792969 8.492188 L 13.105469 8.195312 L 13.144531 7.625 L 13.28125 7.4375 C 13.375 7.671875 13.4375 7.917969 13.4375 8.144531 C 13.4375 8.394531 13.636719 8.019531 13.539062 7.257812 C 13.539062 7.253906 13.386719 5.449219 12.550781 4.613281 Z M 8.867188 5.363281 L 7.871094 5.328125 L 8.292969 4.980469 L 8.515625 4.980469 L 8.867188 5.222656 L 8.867188 5.363281 M 10.082031 5.242188 L 10.082031 5.398438 L 9.660156 5.398438 L 9.695312 5.5 L 9.4375 5.535156 L 9.417969 5.621094 L 9.234375 5.585938 L 8.902344 5.519531 L 8.957031 5.429688 L 9.011719 5.328125 L 9.199219 5.136719 L 9.273438 5.273438 L 9.550781 5.257812 L 9.695312 5.101562 L 10.269531 5.207031 L 10.082031 5.242188 M 10.117188 5.015625 L 9.898438 5.050781 L 9.863281 4.894531 L 10.136719 4.859375 L 10.175781 4.699219 L 10.378906 4.910156 L 10.117188 5.015625 M 11.191406 10.417969 L 11.058594 10.523438 L 11.078125 10.785156 L 11.242188 10.785156 L 11.242188 10.558594 L 11.390625 10.367188 L 11.390625 9.96875 L 11.300781 9.949219 L 11.191406 10.417969 M 9.953125 9.898438 C 9.953125 9.898438 9.824219 9.933594 9.972656 9.984375 C 10.117188 10.039062 10.710938 9.132812 10.710938 9.132812 L 10.210938 9.445312 L 9.953125 9.898438 M 8.949219 13.230469 L 8.839844 13.125 L 8.621094 13.089844 L 8.582031 13.195312 L 8.289062 13.160156 L 8.269531 13.019531 L 8.046875 13.019531 L 7.808594 13.160156 L 7.382812 13.160156 L 7.347656 13.054688 L 6.667969 12.984375 L 6.554688 13.089844 L 6.277344 13.019531 L 6.242188 12.773438 L 6.113281 12.753906 L 5.964844 13.019531 L 5.46875 13 C 5.558594 13.042969 6.300781 13.488281 7.441406 13.578125 C 8.949219 13.699219 9.667969 13.335938 9.667969 13.335938 L 9.613281 13.28125 Z "/>
</g>
</g>
</svg>
